X:182
T:Monaghan Jig, The
R:jig
D:Mary Bergin: Feadoga Stain
Z:id:hn-jig-182
M:6/8
K:Edor
BGE FGE|BGE FGA|BGE FGE|AFD FGA|BGE FGE|BGE FGA|d2B ABG|FDF AFD:|
EGB e2g|fed edB|EGB eBG|FDF AFD|EGB e2g|fed edc|~d3 cAG|FDF AFD:|
g2e efe|g2a bge|~g3 ~e3|~f3 afd|gbg e2f|geg bge|dcd ABG|FDF AFD:|
EGB eBG|BGE FAF|EGB eBG|~F3 AGF|EGB GBd|Beg efg|~d3 A2G|FDF AGF:|
